X:894
T:Arioso
T:From a 18th Century sonata
C:anon.
Z:Transcribed by Frank Nordberg - http://www.musicaviva.com
F:http://abc.musicaviva.com/tunes/anon/arioso-d/arioso-d-1.abc
M:C
L:1/16
K:D
(f3g) (g3f/g/) a2(gf) (gf)(ed)|(gf)(ge) (fe)(fd) edcB A>(Bc/d/e/f/)|
(ge)(ce) (Ac)(eg) (ge)(ce) (Ac)(eg)|f2ed cdec d8:|
|:(fd)(fg) a2(gf) e2 A4 c2|d2ba ^gfed c4 B4|
(dc)(de) (dc)(de) (dc)(de) (dc)(db)|c2de B3A A4 z4|
agfe d2(e/f/g/a/) b2 g4 d'2|(gf)(ga) (fe)(fg) (ed)(cB) A>(Bc/d/e/f/)|
(ge)(ce) (Ac)(eg) (ge)(ce) (Ac)(eg)|f2ed cdec d8:|
W:
W:
W:  From Musica Viva - http://www.musicaviva.com
W:  the Internet center for free sheet music downloads.
